src/assets/icons/backward.svg

<?xml version="1.0" encoding="iso-8859-1"?>
<!-- Generator: Adobe Illustrator 19.0.0, SVG Export Plug-In . SVG Version: 6.00 Build 0)  -->
<svg version="1.1" id="Layer_1" xmlns="http://www.w3.org/2000/svg" xmlns:xlink="http://www.w3.org/1999/xlink" x="0px" y="0px"
	 viewBox="0 0 512.053 512.053" style="enable-background:new 0 0 512.053 512.053;" xml:space="preserve">
<g>
	<g>
		<path d="M496.197,343.5C461.595,226.721,356.4,145.057,234.672,139.34V53.793c0-8.619-5.184-16.405-13.163-19.712
			c-7.979-3.328-17.152-1.472-23.253,4.629l-192,192c-8.341,8.341-8.341,21.824,0,30.165l192,192
			c6.101,6.101,15.275,7.957,23.253,4.629c7.979-3.285,13.163-11.093,13.163-19.712v-109.78
			c41.429-4.203,153.195,0.043,237.675,142.037c3.755,6.336,10.453,9.557,17.536,9.557c2.155,0,4.309-0.299,6.464-0.875
			c9.237-2.539,15.68-11.947,15.68-21.547C512.475,418.636,507.141,380.385,496.197,343.5z"/>
	</g>
</g>
<g>
</g>
<g>
</g>
<g>
</g>
<g>
</g>
<g>
</g>
<g>
</g>
<g>
</g>
<g>
</g>
<g>
</g>
<g>
</g>
<g>
</g>
<g>
</g>
<g>
</g>
<g>
</g>
<g>
</g>
</svg>

<svg width="513" height="513" viewBox="0 0 513 513" fill="none" xmlns="http://www.w3.org/2000/svg">
<g clip-path="url(#clip0)">
<path d="M496.197 343.5C461.595 226.721 356.4 145.057 234.672 139.34V53.793C234.672 45.174 229.488 37.388 221.509 34.081C213.53 30.753 204.357 32.609 198.256 38.71L6.25624 230.71C-2.08476 239.051 -2.08476 252.534 6.25624 260.875L198.256 452.875C204.357 458.976 213.531 460.832 221.509 457.504C229.488 454.219 234.672 446.411 234.672 437.792V328.012C276.101 323.809 387.867 328.055 472.347 470.049C476.102 476.385 482.8 479.606 489.883 479.606C492.038 479.606 494.192 479.307 496.347 478.731C505.584 476.192 512.027 466.784 512.027 457.184C512.475 418.636 507.141 380.385 496.197 343.5Z" fill="#204051"/>
</g>
<defs>
<clipPath id="clip0">
<rect width="512.053" height="512.053" fill="white"/>
</clipPath>
</defs>
</svg>
